X:88
T:Coffee and Tea
T:Jamie Allen's Fancy
Z:Jack Campin, http://www.campin.me.uk/
S:Northumbrian Minstrelsy
M:4/4
L:1/8
K:G
ef|g2d2   BG```````dB      |Gggf Tg2ed|g2d2   BG```````dB      |Aefg Tf2
ed|g2dc   BG       B/c/d/B/|Gggf Tg2ed|g2dc   BG       B/c/d/B/|Aefg Tf2||
ed|BgBg (3def      gd      |BgBg Tf2ed|BgBg (3dgf      gd      |Aegf gfed|
   BgBg   f/g/f/e/ gd      |BgBg Tf2ed|BgBg   f/g/f/e/ gB      |Aefg Tf2|]

